relation-only-one-to-one-or-many.svg

<svg fill="currentColor" viewBox="0 0 24 24"><path d="M22 13v6h-1l-2-2v2h-2v-2h-6V9H8v2H6V9H5v2H3V9H2V7h1V5h2v2h1V5h2v2h5v8h4v-2h2v2l2-2Z"/></svg>

<svg  viewBox="0 0 24 24" fill="currentColor"><path  d="M22 13V19H21L19 17V19H17V17H11V9H8V11H6V9H5V11H3V9H2V7H3V5H5V7H6V5H8V7H13V15H17V13H19V15L21 13Z"/></svg>
